X:1
T:Title
%%score { ( 1 4 ) | ( 2 3 ) }
L:1/8
M:4/4
K:G
V:1 treble nm="Grand Piano"
V:4 treble 
V:2 bass 
V:3 bass 
V:1
 z4 z2[Q:1/4=100] D2 | G>G G>A B2 G2 | E2 D4 B2 | [FB]2 [FA]2 E2 F2 | G6 [DG]>[DF] | %5
 [CE]2 [EG]2 [Ec]2 E2 | D2 B4 B2 | A2 G2 [A,^CF]2[K:bass] [G,CE]2 |[M:3/4] [F,D]6 | %9
[M:1/4] [F,CD]2 |[M:4/4][K:treble] [DGB]>[DGB] [^CG_B]>[CGB] [DG=B]2 [B,DG]2 | %11
[M:3/4][K:bass] z2 [B,D]4 |[M:1/4][K:treble] [B,DG]2 |[M:4/4] z2 [CDF]4[K:bass][K:treble] z2 | %14
 z2 [DGB]4[K:bass] z2 | [DGB]>[DGB] [^CG_B]>[CGB] [DG=B]2 [B,DG]2 |[M:3/4][K:bass] z2 [B,D]4 | %17
[M:1/4][K:treble] B2 |[M:4/4] A2 d2 B2 ^c2 |[M:3/4] d2 d'>d' d'2 |[M:1/4] z2 | %21
[M:4/4] [DFAc]2 [DFAc]2 [DFAc]2 [DFAc]2 | [GB]2 [GB]2 B2 D2 | D>E F>G [CFA]2 [CD]2 | %24
[M:3/4] z2 [Bd]4 |[M:1/4] B2 |[M:4/4] B>B B>B A2 G2 |[M:5/4] [EGe]>[EGe] [EGe]6 [EGc]2 | %28
[M:4/4] [DGB]>[Gd] [Gd]2 [FB]2 [FA]2 |[M:3/4] [B,DG]6 |] %30
V:2
 z4 z2 [G,B,]2 | [G,B,D]>[G,B,D] [G,B,D]>[G,CD][K:treble] [G,DG]2 [G,B,D]2 | %2
 [G,C]2 [G,B,]4 [G,DG]2 | [D,C]2 [D,C]2 [D,CD]2 [D,CD]2 | [G,B,D]6 [B,,G,]>[B,,G,] | %5
 [C,G,]2 [C,C]2 [C,G,]2 [C,G,C]2 | [G,B,]2[K:treble] [G,D]4 [G,DG]2 | %7
 [A,DF]2[K:bass] [A,E]2 A,,2 A,,2 |[M:3/4] D,6 |[M:1/4] A,,2 | %10
[M:4/4] [G,,D,]2 [D,,D,]2 [G,,D,]2 [D,,D,]2 |[M:3/4] [G,,D,]2 [D,,D,]2 z2 |[M:1/4] [D,,D,]2 | %13
[M:4/4] [A,,D,]2 [D,,D,]2 z2 [D,,D,]2 | [G,,D,]2 [D,,D,]2 G,,2 D,,2 | %15
 [G,,D,]2 [D,,D,]2 [G,,D,]2 [D,,D,]2 |[M:3/4] [G,,D,]2 [D,,D,]2 G,,2 |[M:1/4][K:treble] [G,DG]2 | %18
[M:4/4] [A,DF]2 [A,DF]2 [A,EG]2 [A,EG]2 |[M:3/4] z2 d>d d2 |[M:1/4][K:bass] D,2 | %21
[M:4/4] D,>E, F,>G, A,2 D,2 | D>D z2 G2 z2 | z z/ D/ D>E D,2 D,2 | %24
[M:3/4] z z/[K:treble] B/[K:bass] [D,G,B,]2 [D,G,]2 |[M:1/4][K:treble] [G,DG]2 | %26
[M:4/4] [G,DG]>[G,DG] [G,DG]>[G,DG] [G,C=F]2 [G,B,F]2 |[M:5/4][K:bass] [C,C]>[C,C] [C,C]6 C,2 | %28
[M:4/4] D,>[D,B,] [D,B,]2 [D,D]2 [D,C]2 |[M:3/4] [G,,G,]6 |] %30
V:3
 x8 | x4[K:treble] x4 | x8 | x8 | x8 | x8 | x2[K:treble] x6 | x2[K:bass] x6 |[M:3/4] z2 C,2 B,,2 | %9
[M:1/4] x2 |[M:4/4] x8 |[M:3/4] x6 |[M:1/4] x2 |[M:4/4] x8 | x8 | x8 |[M:3/4] x6 | %17
[M:1/4][K:treble] x2 |[M:4/4] x8 |[M:3/4] D,6 |[M:1/4][K:bass] x2 |[M:4/4] x8 | z2 D4 z2 | %23
 D,,2 [D,C]2 z4 |[M:3/4] G,,2[K:treble][K:bass] z2 z2 |[M:1/4][K:treble] x2 |[M:4/4] x8 | %27
[M:5/4][K:bass] x10 |[M:4/4] x8 |[M:3/4] x6 |] %30
V:4
 x8 | x8 | x8 | x8 | x8 | x8 | x8 | x6[K:bass] x2 |[M:3/4] x6 |[M:1/4] x2 |[M:4/4][K:treble] x8 | %11
[M:3/4][K:bass] [_B,E]>[=B,D] z2 [G,,D,]2 |[M:1/4][K:treble] x2 | %13
[M:4/4] [CDG]>[CDF] z2[K:bass] [A,,D,]2[K:treble] [EFc]2 | [DGc]>[DGB] z2[K:bass] D,2 [D,B,D]2 | %15
 x8 |[M:3/4][K:bass] [_B,E]>[=B,D] z2 D,2 |[M:1/4][K:treble] x2 |[M:4/4] x8 |[M:3/4] [DF]6 | %20
[M:1/4] x2 |[M:4/4] x8 | x8 | x8 |[M:3/4] [Bd]>d z2 B,2 |[M:1/4] x2 |[M:4/4] x8 |[M:5/4] x10 | %28
[M:4/4] x8 |[M:3/4] x6 |] %30

